themes/ColwichTheme/static/images/icons/parent.svg

<svg viewBox="0 0 640 512" xmlns="http://www.w3.org/2000/svg"><path d="m160 320c53.02 0 96-42.98 96-96s-42.98-96-96-96c-53.9 0-96 42.1-96 96 0 53 42.1 96 96 96zm32 32h-64c-70.69 0-128 57.31-128 128 0 17.67 14.33 32 32 32h256c17.67 0 32-14.33 32-32 0-70.7-57.3-128-128-128zm32-288v49.81c38.1 22.19 64 62.99 64 110.19 0 41.81-20.14 78.1-51.24 102.4 18.54 5.4 35.44 14.3 50.54 25.6h96.69v-48c0-8.838 7.164-16 16-16h96c8.836 0 16 7.162 16 16v48h64v-288z"/><path d="m592 0h-384c-26.5 0-48 22.25-48 49.63v46.37c23.42 0 45.1 6.781 63.1 17.81v-49.81h352v288h-287.8c22.07 16.48 39.54 38.5 50.76 64h253.9c26.54 0 48.04-22.2 48.04-49.6v-316.77c0-27.38-21.5-49.63-48-49.63z" opacity=".4"/></svg>

<svg xmlns="http://www.w3.org/2000/svg" viewBox="0 0 640 512"><!--! Font Awesome Pro 6.1.1 by @fontawesome - https://fontawesome.com License - https://fontawesome.com/license (Commercial License) Copyright 2022 Fonticons, Inc. --><defs><style>.fa-secondary{opacity:.4}</style></defs><path class="fa-primary" d="M160 320c53.02 0 96-42.98 96-96c0-53.02-42.98-96-96-96C106.1 128 64 170.1 64 224C64 277 106.1 320 160 320zM192 352H128c-70.69 0-128 57.31-128 128c0 17.67 14.33 32 32 32h256c17.67 0 32-14.33 32-32C320 409.3 262.7 352 192 352zM224 64v49.81C262.1 136 288 176.8 288 224c0 41.81-20.14 78.1-51.24 102.4C255.3 331.8 272.2 340.7 287.3 352h96.69V304c0-8.838 7.164-16 16-16h96c8.836 0 16 7.162 16 16V352h64V64H224z"/><path class="fa-secondary" d="M592 0h-384C181.5 0 160 22.25 160 49.63V96c23.42 0 45.1 6.781 63.1 17.81V64h352v288H287.3c22.07 16.48 39.54 38.5 50.76 64h253.9C618.5 416 640 393.8 640 366.4V49.63C640 22.25 618.5 0 592 0z"/></svg>
